assets/img/braze_icons/pen-tool-02.svg

<svg fill="none" height="24" viewBox="0 0 24 24" width="24" xmlns="http://www.w3.org/2000/svg"><path d="m4.51965 22.2618c-.88662.261-1.32993.3915-1.51293.29-.15774-.0875-.25612-.2532-.25744-.4336-.00154-.2093.32522-.536.97876-1.1896l6.75426-6.7542c.1652.0442.3389.0677.518.0677 1.1046 0 2-.8954 2-2 0-1.1045-.8954-2-2-2-1.10454 0-1.99997.8955-1.99997 2 0 .1792.02355.3528.06774.5181l-6.75425 6.7542c-.65353.6536-.9803.9803-1.18955.9788-.180382-.0013-.346063-.0997-.433564-.2575-.101509-.183.028993-.6263.289996-1.5129l3.325978-11.29821c.06564-.27668.14812-.62432.3406-.91951.16626-.25498.38853-.46865.64986-.62472.30256-.18069.65318-.24939.93223-.30407l5.20663-1.04111c-.0451-.30406-.0196-.61599.0763-.91118.0941-.28971.2537-.5116.4021-.68645.1352-.15922.309-.333.4875-.51144l.7823-.78235c.1785-.17849.3523-.35232.5115-.48748.1748-.14844.3967-.308008.6864-.402143.4017-.130516.8344-.130516 1.2361 0 .2897.094135.5116.253703.6865.402143.1592.13516.333.30898.5114.48747l4.7824 4.78237c.1785.17844.3523.35222.4874.51143.1485.17485.308.39674.4022.68645.1305.40169.1305.83439 0 1.23607-.0942.28972-.2537.51161-.4022.68646-.1351.1592-.3089.33298-.4874.51137l-.7824.7824c-.1783.1784-.3523.3524-.5114.4875-.1749.1484-.3968.308-.6865.4021-.2951.0959-.6069.1214-.9109.0764l-1.0411 5.2068c-.0547.279-.1234.6297-.3041.9322-.1561.2613-.3697.4836-.6247.6499-.2952.1925-.6429.2749-.9195.3406z" fill="#801ed7"/></svg>

<svg width="24" height="24" viewBox="0 0 24 24" fill="none" xmlns="http://www.w3.org/2000/svg">
<path d="M4.51965 22.2618C3.63303 22.5228 3.18972 22.6533 3.00672 22.5518C2.84898 22.4643 2.7506 22.2986 2.74928 22.1182C2.74774 21.9089 3.0745 21.5822 3.72804 20.9286L10.4823 14.1744C10.6475 14.2186 10.8212 14.2421 11.0003 14.2421C12.1049 14.2421 13.0003 13.3467 13.0003 12.2421C13.0003 11.1376 12.1049 10.2421 11.0003 10.2421C9.89576 10.2421 9.00033 11.1376 9.00033 12.2421C9.00033 12.4213 9.02388 12.5949 9.06807 12.7602L2.31382 19.5144C1.66029 20.168 1.33352 20.4947 1.12427 20.4932C0.943888 20.4919 0.778207 20.3935 0.690706 20.2357C0.589197 20.0527 0.719699 19.6094 0.980702 18.7228L4.30668 7.42459C4.37232 7.14791 4.4548 6.80027 4.64728 6.50508C4.81354 6.2501 5.03581 6.03643 5.29714 5.88036C5.5997 5.69967 5.95032 5.63097 6.22937 5.57629L11.436 4.53518C11.3909 4.23112 11.4164 3.91919 11.5123 3.624C11.6064 3.33429 11.766 3.1124 11.9144 2.93755C12.0496 2.77833 12.2234 2.60455 12.4019 2.42611L13.1842 1.64376C13.3627 1.46527 13.5365 1.29144 13.6957 1.15628C13.8705 1.00784 14.0924 0.848272 14.3821 0.754137C14.7838 0.623621 15.2165 0.623621 15.6182 0.754137C15.9079 0.848272 16.1298 1.00784 16.3047 1.15628C16.4639 1.29144 16.6377 1.46526 16.8161 1.64375L21.5985 6.42612C21.777 6.60456 21.9508 6.77834 22.0859 6.93755C22.2344 7.1124 22.3939 7.33429 22.4881 7.624C22.6186 8.02569 22.6186 8.45839 22.4881 8.86007C22.3939 9.14979 22.2344 9.37168 22.0859 9.54653C21.9508 9.70573 21.777 9.87951 21.5985 10.0579L20.8161 10.8403C20.6378 11.0187 20.4638 11.1927 20.3047 11.3278C20.1298 11.4762 19.9079 11.6358 19.6182 11.7299C19.3231 11.8258 19.0113 11.8513 18.7073 11.8063L17.6662 17.0131C17.6115 17.2921 17.5428 17.6428 17.3621 17.9453C17.206 18.2066 16.9924 18.4289 16.7374 18.5952C16.4422 18.7877 16.0945 18.8701 15.8179 18.9358L4.51965 22.2618Z" fill="#801ED7"/>
</svg>
